X: 109
T: No_45_A_White_Wind_from_the_West.krn
N: Derived from No_45_A_White_Wind_from_the_West.krn
%%abc-version 2.0
%%abcx-abcm2ps-target-version 5.9.1 (29 Sep 2008)
%%abc-creator hum2abc beta
%%abcx-conversion-date 2019/03/15 08:37:56
%%humdrum-veritas 658984010
%%humdrum-veritas-data 116997226
%%linebreak <none>
%%barnumbers 0
L: 1/8
M: 3/4
K: F clef=bass
D,D, [I:setbarnb 1]| 
A,A,A,2A,F, ||  
[M:7/8]A,2A,2A,F,F, ||  
[M:2/4]E,2F,F, | 
F,2!fermata!F,3/E,/ ||  
[M:3/4]F,F, F, z E,E, | 
F,F,F,2F,E, ||  
[M:7/8]F,F,F,2F,E,E, ||  
[M:2/4]D,2E,E, | 
E,2E,3/D,/ | 
E,E, E, z ]|:  
E,E, E,E, | 
F,2F,E, ||  
[M:7/8]F,F,F,F,F,E,E, ||  
[M:3/4]D,2z2E,E, ||  
[M:2/4]F,F, F,E, | 
F, z (3F,E,E, ||  
[M:3/4]D,2z2E,E, ||  
[M:2/4]F,2F,E, | 
F,2E,D, | 
E,2(3D,A,,A,, | 
D,D, z D, ||  
[M:3/4]D,2A,,2z2 ||  
[M:2/4]D,2(3E,D,D, | 
D,D, A,,A,, ||  
[M:3/4]D,D, D,D, A,,D, ||  
[M:2/4]D,D, A,,A,, | 
D,D, D,D, | 
D,2A,,2 ||  
[M:3/4]D,D,D,4 :|]  



